X:1
T:Title
%%score { ( 1 3 ) | ( 2 4 ) }
L:1/8
Q:1/4=105
M:6/4
K:G
V:1 treble nm="Grand Piano"
V:3 treble 
V:2 bass 
V:4 bass 
V:1
 [DB]2 [^C_B]2 [D=B]2 [Fd]2 [Ec]2 [DB]2 | [CA]2 [DB]2 [A,F]2 [CA]2 [B,G]4 | %2
w: I.~H.~Meredith * * * * *||
 [EG]2 [DF]2 [CE]2 [B,D]2 [DB]2 [B,G]2 | [^CE]2 [CA]2 [CB]2 [=CA]6 | %4
w: ||
 [DB]2 [^C_B]2 [D=B]2 [Fd]2 [Ec]2 [DB]2 | z6 z2 G4 | [EG]2 [DF]2 [CE]2 [B,D]2 [DB]2 [B,G]2 | %7
w: |||
 [CA]2 [CD]2 [CA]2 [B,G]6 | z2 E2 G2 E2 D4 | z2 E2 G2 E2 D4 | z4 .[DF]2 B2 d4 | B2 A2 B2 A6 | %12
w: |||||
 z2 E2 G2 E2 D4 | z2 E2 G2 E2 D4 | z2 G2 B2 d2 c4 | %15
w: |||
 B2[Q:1/4=92] A2 B2 z6[Q:1/4=103][Q:1/4=102][Q:1/4=100][Q:1/4=98][Q:1/4=97][Q:1/4=95][Q:1/4=94][Q:1/4=90][Q:1/4=89][Q:1/4=87][Q:1/4=85][Q:1/4=84][Q:1/4=82][Q:1/4=80] |] %16
w: |
V:2
 G,,D, G,2 D,2 D,,D, F,2 D,2 | D,,D, F,2 D,2 F,,D, G,2 D,2 | C,G, C2 G,2 G,,D, G,2 E,2 | %3
 A,,E, G,2 E,2 D,,D, F,2 D,2 | G,,D, G,2 D,2 D,,D, F,2 D,2 | D,,D, F,2 D,2 G,,^D, [E,B,]2 B,,2 | %6
 C,G, C2 G,2 G,,D, G,2 D,2 | z4 D,2- D,6 | %8
 z .B,2 B,[B,D]B, E,-[E,F,] [D,-F,C]3 D,/-(3:2:2D,/G,,/4 | D,2 E,2 .[B,D]2 .[F,C]2 .[F,C]4 | %10
 z .B,2 .D2[K:treble] D [DG]D[DG]DDD | z .^C2 .C2 C z =CCC D,,3/2-(3:2:2D,,/G,,/4 | %12
 z .B,2 B,[B,D]B, E,-[E,F,] [D,-F,C]3 D,/-(3:2:2D,/G,,/4 | %13
 z .B,2 B,[B,D]B, E,-[E,F,] [D,-F,C]3 D,/-(3:2:2D,/G,,/4 | %14
 z .B,2 B,[K:treble][DG]D z =F[EA] .E2[K:bass] ^D | z .D2 .C2 C G,,6 |] %16
V:3
 x12 | x12 | x12 | x12 | x12 | [CA]2 [DB]2 [A,F]2 .[CA]4 D2 | x12 | x12 | %8
 .[B,D]2 [B,D] .D2 D z .C2 CCC | .[B,D]2 [B,D] .D2 D z .C2 CCC | .[B,D]2 .[DG]2 A-[FA] z .G2 GGG | %11
 [^CG]G[CG]G[CG]G [=CG]GEE[CF]F | .[B,D]2 [B,D] .D2 D z .C2 CCC | .[B,D]2 [B,D] .D2 D z .C2 CCC | %14
 .[B,D]2 [B,D] .D2 G [=FB] .B2 A[^DA]A | [DG]G[CE]E[CF]F [B,DG]6 |] %16
V:4
 x12 | x12 | x12 | x12 | x12 | x12 | x12 | D,,D, .F,4 G,,4- G,,3/2-(3:2:2G,,/G,,/4 | %8
 D,2 E,2 G,2 .[F,C]3 F,F,F, | z .B,2 B,G,-[G,B,] E,-[E,F,]D,-[D,-F,][D,-F,][D,F,] | %10
 G,,2 B,,2 D,2[K:treble] G,2 B,4 | E,2 A,,2 E,2 D,4 z C | D,2 E,2 G,2 .[F,C]3 F,F,F, | %13
 D,2 E,2 G,2 .[F,C]3 F,F,F, | D,2 G,2[K:treble] B,2 ^G,2 A,2[K:bass] C,2 | %15
 D,2 D,,2 D,2- D,4- D,3/2 z/ |] %16

